rospo-newyear-dark/symbolic/mimetypes/application-x-executable-symbolic.svg

<svg height="16" width="16" xmlns="http://www.w3.org/2000/svg"><path d="m3 1c-2 0-2 2-2 2v10c0 2 2 2 2 2h3.07l-.01-.01v-.01l-.12-.21 1.63-.95c-.04-.27-.07-.54-.07-.82s.03-.55.07-.82l-1.63-.95 2-3.46 1.63.94c.44-.34.92-.62 1.43-.82v-1.89h4v-3s0-2-2-2zm10 10c-1.1 0-2 .9-2 2s .9 2 2 2 2-.9 2-2-.9-2-2-2z" fill="#d3dae3"/></svg>

<svg xmlns="http://www.w3.org/2000/svg" width="16" height="16" version="1.1">
 <path style="fill:#d3dae3" d="M 3,1 C 1,1 1,3 1,3 V 13 C 1,15 3,15 3,15 H 6.07 L 6.06,14.99 V 14.98 L 5.94,14.77 7.57,13.82 C 7.53,13.55 7.5,13.28 7.5,13 7.5,12.72 7.53,12.45 7.57,12.18 L 5.94,11.23 7.94,7.77 9.57,8.71 C 10.01,8.37 10.49,8.09 11,7.89 V 6 H 15 V 3 C 15,3 15,1 13,1 Z M 13,11 C 11.9,11 11,11.9 11,13 11,14.1 11.9,15 13,15 14.1,15 15,14.1 15,13 15,11.9 14.1,11 13,11 Z"/>
</svg>
